X:1
T:Nobilis humilis
C:anon.
O:Norway
A:Orkney Islands
S:Codex Upsaliensis C233 (ms c. 1280)
R:Gymel %Well, the word "gymel" wasn't really invented back then...
Z:Frank Nordberg <frnordbe@online.no> abcusers 2001-02-05
M:none
L:1/4
Q:1/2=64
K:Flyd Doh3
V:1
A c B2 A c B2 A c  B d A c B2 A c B2|
w:No-bi-lis, hu-mi-lis, Mag-ne mar-tyr sta-bi-lis, Ha-bi-lis,
V:2
F A G2 F A G2 F A G B F A G2 F A G2|
w:No-bi-lis, hu-mi-lis, Mag-ne mar-tyr sta-bi-lis, Ha-bi-lis,
V:1
A c B2 A c B d A d/e/ ed||e c B c A F GA|
w:u-ti-lis, co-mes ve-ne ra-bi--lis,_ et tu-tor lau-da-bi-lis,_
V:2
F A G2 F A G B F c cd|| c A G A F F EF|
w:u-ti-lis, co-mes ve-ne ra-bi-lis,_ et tu-tor lau-da-bi-lis,_
V:1
G A A G F3 z A B c B/c/ A F GA G A A G F4|]
w:Tu-os sub-di-tos ser-va car-nis_ fra-gi-lis_ mo-le po-si-tos.
V:2
G F E/D/ E F3 z F G A G/A/ F F EF G F E/D/ E F4|]
w:Tu-os sub--di-tos ser-va car-nis_ fra-gi-lis_ mo-le po--si-tos.
